flaticon/hand-gestures/fingers.svg

<svg xmlns="http://www.w3.org/2000/svg" width="32" height="32" viewBox="0 0 24 24">
    <path d="M 18.394531 3.199219 C 18.035156 3.199219 17.675781 3.320312 17.394531 3.519531 L 17.394531 3 C 17.394531 2 16.59375 1.199219 15.59375 1.199219 C 15.195312 1.199219 14.875 1.320312 14.554688 1.519531 C 14.433594 0.679688 13.675781 0 12.792969 0 C 11.792969 0 10.996094 0.800781 10.996094 1.800781 L 10.996094 7.101562 C 10.730469 6.921875 10.414062 6.816406 10.070312 6.800781 C 10.046875 6.800781 10.019531 6.800781 9.996094 6.800781 C 8.996094 6.800781 8.195312 7.601562 8.195312 8.601562 L 8.195312 10.480469 C 7.835938 9.71875 7.355469 9 6.875 8.519531 C 6.234375 7.878906 4.953125 7.839844 4.234375 8.441406 C 4.035156 8.640625 3.355469 9.359375 4.273438 10.640625 C 5.113281 11.839844 5.792969 14.480469 5.792969 16 C 5.792969 19.199219 7.875 20.640625 8.59375 21.039062 L 8.59375 22.398438 C 8.59375 23.28125 9.316406 24 10.195312 24 L 17.394531 24 C 18.273438 24 18.996094 23.28125 18.996094 22.398438 L 18.996094 20.960938 C 20.195312 19.320312 20.195312 19.121094 20.195312 16 L 20.195312 5 C 20.195312 4 19.394531 3.199219 18.394531 3.199219 Z M 8.996094 8.601562 C 8.996094 8.039062 9.433594 7.601562 9.996094 7.601562 C 10.554688 7.601562 10.996094 8.039062 10.996094 8.601562 L 10.996094 13 C 10.996094 13.558594 10.554688 14 9.996094 14 C 9.433594 14 8.996094 13.558594 8.996094 13 Z M 19.394531 16 C 19.394531 18.929688 19.394531 19.035156 18.394531 20.398438 L 17.792969 20.398438 C 17.554688 20.398438 17.394531 20.558594 17.394531 20.800781 C 17.394531 21.039062 17.554688 21.199219 17.792969 21.199219 L 18.195312 21.199219 L 18.195312 22.398438 C 18.195312 22.839844 17.835938 23.199219 17.394531 23.199219 L 10.195312 23.199219 C 9.753906 23.199219 9.394531 22.839844 9.394531 22.398438 L 9.394531 21.199219 L 10.195312 21.199219 C 10.394531 21.199219 10.59375 21.039062 10.59375 20.800781 C 10.59375 20.558594 10.433594 20.398438 10.195312 20.398438 L 9.074219 20.398438 C 8.640625 20.171875 6.59375 18.945312 6.59375 16 C 6.59375 14.519531 5.953125 11.601562 4.914062 10.160156 C 4.636719 9.800781 4.394531 9.320312 4.753906 9.039062 C 4.914062 8.878906 5.195312 8.800781 5.476562 8.800781 C 5.792969 8.800781 6.113281 8.878906 6.316406 9.078125 C 7.316406 10.078125 8.195312 12.199219 8.195312 13.199219 C 8.195312 13.273438 8.210938 13.339844 8.238281 13.398438 C 8.417969 14.203125 9.132812 14.800781 9.996094 14.800781 C 10.996094 14.800781 11.792969 14 11.792969 13 L 11.792969 1.800781 C 11.792969 1.238281 12.234375 0.800781 12.792969 0.800781 C 13.355469 0.800781 13.792969 1.238281 13.792969 1.800781 L 13.792969 12.761719 C 13.792969 12.765625 13.796875 12.773438 13.796875 12.78125 C 13.796875 12.785156 13.792969 12.792969 13.792969 12.800781 C 13.792969 13 13.753906 13.160156 13.714844 13.199219 C 13.515625 13.238281 13.394531 13.398438 13.394531 13.601562 C 13.394531 13.839844 13.554688 14 13.792969 14 C 13.945312 14 14.082031 13.949219 14.195312 13.855469 C 14.308594 13.949219 14.445312 14 14.59375 14 C 14.792969 14 14.996094 13.839844 14.996094 13.601562 C 14.996094 13.398438 14.835938 13.238281 14.675781 13.199219 C 14.636719 13.160156 14.59375 13 14.59375 12.800781 C 14.59375 12.792969 14.59375 12.785156 14.59375 12.78125 C 14.59375 12.773438 14.59375 12.765625 14.59375 12.761719 L 14.59375 3 C 14.59375 2.441406 15.035156 2 15.59375 2 C 16.15625 2 16.59375 2.441406 16.59375 3 L 16.59375 5 C 16.59375 5.035156 16.597656 5.070312 16.605469 5.101562 C 16.597656 5.132812 16.59375 5.164062 16.59375 5.199219 L 16.59375 12.800781 C 16.59375 13 16.554688 13.160156 16.515625 13.199219 C 16.316406 13.238281 16.195312 13.398438 16.195312 13.601562 C 16.195312 13.839844 16.355469 14 16.59375 14 C 16.746094 14 16.878906 13.949219 16.996094 13.855469 C 17.109375 13.949219 17.242188 14 17.394531 14 C 17.59375 14 17.792969 13.839844 17.792969 13.601562 C 17.792969 13.398438 17.636719 13.238281 17.476562 13.199219 C 17.433594 13.160156 17.394531 13 17.394531 12.800781 L 17.394531 5.199219 C 17.394531 5.164062 17.390625 5.132812 17.382812 5.101562 C 17.390625 5.070312 17.394531 5.035156 17.394531 5 C 17.394531 4.441406 17.835938 4 18.394531 4 C 18.953125 4 19.394531 4.441406 19.394531 5 Z M 19.394531 16"/>
</svg>

<svg xmlns="http://www.w3.org/2000/svg" width="32" height="32" viewBox="0 0 24 24">
    <path d="M18.395 3.2c-.36 0-.72.12-1 .32V3c0-1-.801-1.8-1.801-1.8-.399 0-.719.12-1.04.32A1.804 1.804 0 0 0 12.794 0c-1 0-1.797.8-1.797 1.8v5.302a1.786 1.786 0 0 0-.926-.301h-.074c-1 0-1.8.8-1.8 1.8v1.88C7.835 9.718 7.355 9 6.874 8.52c-.64-.641-1.922-.68-2.64-.079-.2.2-.88.918.038 2.2.84 1.199 1.52 3.84 1.52 5.359 0 3.2 2.082 4.64 2.8 5.04v1.358c0 .883.723 1.602 1.602 1.602h7.2c.878 0 1.601-.719 1.601-1.602v-1.437c1.2-1.64 1.2-1.84 1.2-4.961V5c0-1-.801-1.8-1.801-1.8zM8.996 8.601c0-.563.438-1 1-1a.99.99 0 0 1 1 1V13c0 .559-.441 1-1 1a.99.99 0 0 1-1-1zM19.395 16c0 2.93 0 3.035-1 4.398h-.602c-.238 0-.398.16-.398.403 0 .238.16.398.398.398h.402v1.2c0 .44-.36.8-.8.8h-7.2c-.441 0-.8-.36-.8-.8v-1.2h.8a.4.4 0 0 0 .399-.398c0-.242-.16-.403-.399-.403h-1.12C8.64 20.172 6.593 18.945 6.593 16c0-1.48-.64-4.398-1.68-5.84-.277-.36-.52-.84-.16-1.12.16-.161.441-.24.723-.24.316 0 .636.079.84.278 1 1 1.878 3.121 1.878 4.121 0 .074.016.14.043.2.18.804.895 1.402 1.758 1.402 1 0 1.797-.801 1.797-1.801V1.8c0-.562.441-1 1-1 .562 0 1 .438 1 1v10.962c0 .004.004.011.004.02 0 .003-.004.011-.004.019 0 .199-.04.36-.078.398-.2.04-.32.2-.32.403 0 .238.16.398.398.398a.62.62 0 0 0 .402-.145c.114.094.25.145.399.145.199 0 .402-.16.402-.398a.43.43 0 0 0-.32-.403c-.04-.039-.082-.199-.082-.398v-.02V3c0-.559.441-1 1-1a.99.99 0 0 1 1 1v2c0 .035.004.07.011.102a.394.394 0 0 0-.011.097v7.602c0 .199-.04.36-.078.398-.2.04-.32.2-.32.403 0 .238.16.398.398.398.152 0 .285-.05.402-.145a.61.61 0 0 0 .399.145.4.4 0 0 0 .398-.398.426.426 0 0 0-.316-.403c-.043-.039-.082-.199-.082-.398V5.199a.394.394 0 0 0-.012-.097.426.426 0 0 0 .012-.102c0-.559.44-1 1-1 .558 0 1 .441 1 1zm0 0"/>
</svg>
